logo/drone-icon.svg

<?xml version="1.0" encoding="UTF-8"?>
<svg width="256px" height="256px" viewBox="0 0 256 256" version="1.1" xmlns="http://www.w3.org/2000/svg" xmlns:xlink="http://www.w3.org/1999/xlink" preserveAspectRatio="xMidYMid">
    <g>
        <path d="M51.0914,28.4867396 L49.823023,29.6398096 L94.21622,73.4564716 C87.6818127,84.0134009 84.282702,96.21021 84.4151246,108.625108 C83.8872121,125.508546 90.4106839,141.849869 102.420358,153.72829 C114.430033,165.606711 130.842053,171.950219 147.71867,171.236812 C160.249159,171.422392 172.571526,168.021739 183.233228,161.435717 L227.857039,205.828914 C203.819009,237.231007 166.392391,255.474347 126.848102,255.065005 C93.3193914,255.560086 60.9978276,242.56249 37.1463425,218.992886 C13.2948574,195.423282 -0.0860600048,163.258518 0.0103967069,129.72629 C-0.534916186,89.6588351 18.5393625,51.8547343 51.0914,28.4867396 L51.0914,28.4867396 Z M75.8824062,11.5366098 C92.8613809,3.82327 111.312865,-0.110948411 129.961392,0.00590927948 C163.369779,-0.334114722 195.518721,12.7395618 219.208173,36.2989715 C242.897625,59.8583812 256.148069,91.9348714 255.991948,125.344624 C256.189243,144.038403 252.25174,162.544667 244.461248,179.538916 L204.680331,139.758 C211.093382,129.359904 214.486954,117.38259 214.481426,105.165898 C215.173991,88.1536271 208.711076,71.6286539 196.660669,59.6001576 C184.610263,47.5716613 168.073556,41.1388292 151.062574,41.8623522 C138.837376,41.7949255 126.843339,45.1932359 116.470472,51.6634476 L75.8824062,11.5366098 L75.8824062,11.5366098 Z M151.754416,141.256991 C141.670007,141.608616 131.886384,137.788969 124.707791,130.697654 C117.529198,123.606339 113.590164,113.870169 113.818411,103.782214 C113.427369,93.5957376 117.294522,83.7062497 124.491808,76.487088 C131.689093,69.2679262 141.566799,65.3707774 151.754416,65.7309023 C161.892764,65.5057052 171.6795,69.4500389 178.828335,76.6424643 C185.977169,83.8348897 189.861937,93.6454218 189.575113,103.782214 C189.968314,113.928324 186.110059,123.77832 178.93029,130.958088 C171.750521,138.137857 161.900526,141.996112 151.754416,141.602912 L151.754416,141.256991 L151.754416,141.256991 Z" fill="#00ABE4"></path>
    </g>
</svg>

<svg viewBox="0 0 256 256" xmlns="http://www.w3.org/2000/svg"><path fill="#00ABE4" d="M51.09 28.48l-1.27 1.15 44.39 43.81c-6.54 10.55-9.94 22.75-9.81 35.16 -.53 16.88 5.99 33.22 18 45.1 12 11.87 28.42 18.22 45.29 17.5 12.53.18 24.85-3.22 35.51-9.81l44.62 44.39c-24.04 31.4-61.47 49.64-101.01 49.23 -33.53.49-65.86-12.51-89.71-36.08C13.24 195.36-.14 163.19-.04 129.66 -.59 89.59 18.48 51.78 51.04 28.42v0Zm24.79-16.96C92.85 3.8 111.31-.13 129.95-.02c33.4-.35 65.55 12.73 89.24 36.29 23.68 23.55 36.93 55.63 36.78 89.04 .19 18.69-3.75 37.2-11.54 54.19l-39.79-39.79c6.41-10.4 9.8-22.38 9.8-34.6 .69-17.02-5.78-33.54-17.83-45.57 -12.06-12.03-28.59-18.47-45.6-17.74 -12.23-.07-24.22 3.33-34.6 9.8L75.82 11.47v0Zm75.87 129.72c-10.09.35-19.87-3.47-27.05-10.56 -7.18-7.1-11.12-16.83-10.89-26.92 -.4-10.19 3.47-20.08 10.67-27.3 7.19-7.22 17.07-11.12 27.26-10.76 10.13-.23 19.92 3.71 27.07 10.91 7.14 7.19 11.03 17 10.74 27.13 .39 10.14-3.47 19.99-10.65 27.17 -7.18 7.17-17.03 11.03-27.18 10.64v-.35 0Z"/></svg>
